X:215
T:Smash the Windows TS.215
M:6/8
L:1/8
Q:3/8=120
S:Thomas Sands’ MS,1810,Lincolnshire
R:jig
O:England;Lincolnshire
Z:vmp.Ruairidh Greig, 2011
K:D
A,2DF2A|d2f ecA|G2BF2A|E2F GFE|
A,2DF2A|d2f ecA|faf gec|d3″undotted in ms”d3:|
|:a2fd2A|F2″crotchet in MS”a agf|g2ec2A|E2g gfe|
f2dg2e|a2fb2g|faf gec|d3″undotted in ms” d3:|]

